X: 33676
T: Rambling Speaker, The
R: jig
M: 6/8
K: Dmajor
|:ADA A2B|Bdd dBA|ADA A2B|dfe d2B|
ADA A2B|Bdd dBA|dfe dBA|dfe d2B:|
|:def a2b|afe dBA|def a2b|afd e2B|
def a2b|afe dBA|dfe dBA|dfe d2B:|

